X: 7848
T:Sonderh\o{}ning
R:Sonderh\o{}ning
Q:1/4=92
M:2/4
L:1/8
C:e. Gr\"uner Nielsen
O:Denmark
A:Fan\o{}
K:A
A|\
AB ce| a2 AB| cc ec| B2 ze|\
cA ce| a2 ge| ff e^d| e2 a2|
ge fg| a2 bg| ag ff| e2 ze|\
ff Bc| d2 eA| cc BB| A2 z|]
